X:1
T:James Gibb editions
T:Psalm 11 (Becker) - Schütz
%%score [ ( 1 2 ) ( 3 4 ) ]
L:1/8
Q:1/4=108
M:2/2
K:F
V:1 treble nm="Soprano Alto"
V:2 treble 
V:3 bass nm="Tenor Bass"
V:4 bass 
V:1
"^Cornelius Becker\n(1561-1604)""^Heinrich Schütz\n(1585-1672)""^Psalm 11, SWV 107" F4 c4 | %1
w: ~Ich trau|
w: daß sie|
 d2 _e4 d2 | c2 c2 B4 | d4 c4 | B2 c4 d2 | B4 A4 :|[M:2/2] f4 e4 | d2 c4 A2 | B2 c2 d4 | B4 A4 | %10
w: auf Gott, was|soll's denn sein,|daß ihr|mein Seel wollt|trei- ben,|Der Gott-|los'n Bo- gen|span- net ist,|ihr Pfeil|
w: auf eu- re|Berg al- lein|soll flie-|hend si- cher|blei- ben?|||||
 G2 F4 D2 | E2 ^F2 G4 | A4 !courtesy!_B4 | A2 G4 F2 | G8 | F8 |] %16
w: heim- lich sind|zu- ge- rüst,|die From-|men zu ver-|der-|ben.|
w: ||||||
V:2
 C4 F4 | F2 G4 F2 | G2 F2 F4 | F4 F4 | D2 F4 F2 | D4 D4 :|[M:2/2] A4 A4 | F2 F4 F2 | D2 G2 ^F4 | %9
 D4 D4 | B,2 D4 D2 | C2 C2 =B,4 | D4 D4 | C2 C4 A,2 | C8 | C8 |] %16
V:3
 A,4 A,4 | A,2 (C2 G,2) B,2- | B,2 A,2 B,4 | B,4 A,4 | G,2 A,4 A,2 | G,4 ^F,4 :|[M:2/2] D4 C4 | %7
 B,2 A,4 C2 | B,2 G,2 A,4 | G,4 F,4 | G,2 B,4 B,2 | %11
"^2. Den Grund sie reißen um mit T rutz,\nwas soll der G'rechte machen?\nDer Herr im Himmel ist sein Schutz,\nder wird wohl seh'n zur Sachen,\ndas Recht er liebt und das Gericht,\nwer auf ihn setzt sein Zuversicht,\nder ist ihm lieb vor allen." G,2 A,2 D,4 | %12
 F,4 F,4 | F,2 E,4 F,2- | F,2 (E,D, E,4) | F,8 |] %16
V:4
 F,4 F,4 | D,2 C,4 D,2 | _E,2 F,2 B,,4 | B,,4 F,4 | G,2 F,4 D,2 | G,,4 D,4 :|[M:2/2] D,4 A,4 | %7
 B,2 F,4 F,2 | G,2 _E,2 D,4 | G,,4 D,4 | _E,2 B,,4 B,,2 | C,2 A,,2 G,,4 | D,4 B,,4 | F,2 C,4 D,2 | %14
 C,8 | F,,8 |] %16

